X:9
T:Brenda Stubbert's
C:Jerry Holland
S:Bernie Waugh
R:Reel
M:4/4
L:1/8
K:A minor
|:\
"Am"A/A/ABA GAAB|A/A/ABd edde|"G"G/G/GBA BGGB|BcBA BGGB|
"Am"A/A/ABA GAAB|A/A/ABd edda|"Em"gedB GABd|"G"e/g/edB eAAB:|
"Am"A/A/Aa2 A/A/Ag2|"D7"Aage ageg|"G"G/G/GBA BGGB|BcBA BGGB|
"Am"A/A/Aa2 A/A/Ag2|"D"Aage ageg|"Em"gedB GABd|"G"e/g/edB eAAG|
"Am"A/A/Aa2 A/A/Ag2|"D7"Aage ageg|"G"G/G/GBA BGGB|BcBA BGGB|
"D"A/A/ABA GAAB|"Em"A/A/ABd edda|"F"gedB GABd|"G"e/g/edB eAAB|]

